!!!OTL: EIN TRAUM IST ALLES NUR AUF ERDEN
!!!ARE: Europa, Mitteleuropa, Deutschland, Rheinland
!!!SCT: B0671
!!!YEM: Copyright 1995, estate of Helmut Schaffrath.
**kern
*ICvox
*Ivox
*M4/4
*k[f#]
*G:
{4d
=1
4.g
8d
8d
8d
8e
8f#
=2
8g
8e
4e
4r}
{4g
=3
4.f#
8a
8dd
8dd
8cc
8dd
=4
2b
4r}
{4d
=5
4.g
8d
8d
8d
8e
8f#
=6
8g
8e
4e
4r}
{4g
=7
4.f#
8a
8dd
8dd
8cc
8dd
=8
2b
4r}
{8b
8dd
=9
4.cc
8a
8a
8a
8b
8cc
=10
8dd
8b
4b
4r}
{8b
8dd
=11
4.a
8a
8a
8a
8g
8a
=12
4b
4g
4d}
{8d
8b
=13
4.b
8b
8b
8b
8a
8g
=14
8g
8e
4e
4r}
{4g
=15
4.f#
8a
8dd
8dd
8cc
8dd
=16
2b
4r}
==
!!!AGN: Moral - Lied
!!!ONB: ESAC (Essen Associative Code) Database: BOEHME
!!!AMT: simple quadruple
!!!AIN: vox
!!!EED: Helmut Schaffrath
!!!EEV: 1.0
*-
